icons/svg/additional_category/park_ride.svg

<?xml version="1.0" encoding="UTF-8" standalone="no"?>
<!-- Created with Inkscape (http://www.inkscape.org/) -->

<svg
   xmlns:dc="http://purl.org/dc/elements/1.1/"
   xmlns:cc="http://creativecommons.org/ns#"
   xmlns:rdf="http://www.w3.org/1999/02/22-rdf-syntax-ns#"
   xmlns:svg="http://www.w3.org/2000/svg"
   xmlns="http://www.w3.org/2000/svg"
   xmlns:sodipodi="http://sodipodi.sourceforge.net/DTD/sodipodi-0.dtd"
   xmlns:inkscape="http://www.inkscape.org/namespaces/inkscape"
   version="1.0"
   width="580"
   height="580"
   id="svg2"
   sodipodi:version="0.32"
   inkscape:version="0.92.3 (2405546, 2018-03-11)"
   sodipodi:docname="park_ride.svg"
   inkscape:output_extension="org.inkscape.output.svg.inkscape">
  <metadata
     id="metadata2975">
    <rdf:RDF>
      <cc:Work
         rdf:about="">
        <dc:format>image/svg+xml</dc:format>
        <dc:type
           rdf:resource="http://purl.org/dc/dcmitype/StillImage" />
        <cc:license
           rdf:resource="http://web.resource.org/cc/PublicDomain" />
        <dc:language>en</dc:language>
      </cc:Work>
    </rdf:RDF>
  </metadata>
  <sodipodi:namedview
     inkscape:window-height="1006"
     inkscape:window-width="1920"
     inkscape:pageshadow="2"
     inkscape:pageopacity="0.0"
     guidetolerance="10.0"
     gridtolerance="10.0"
     objecttolerance="10.0"
     borderopacity="1.0"
     bordercolor="#666666"
     pagecolor="#ffffff"
     id="base"
     inkscape:zoom="0.65172416"
     inkscape:cx="115.77329"
     inkscape:cy="168.70239"
     inkscape:window-x="1920"
     inkscape:window-y="0"
     inkscape:current-layer="svg2"
     showgrid="false"
     inkscape:window-maximized="1" />
  <defs
     id="defs4">
    <inkscape:perspective
       sodipodi:type="inkscape:persp3d"
       inkscape:vp_x="0 : 290 : 1"
       inkscape:vp_y="0 : 1000 : 0"
       inkscape:vp_z="580 : 290 : 1"
       inkscape:persp3d-origin="290 : 193.33333 : 1"
       id="perspective2441" />
  </defs>
  <g
     id="g1327">
    <path
       d="M 66.275,1.768 C 24.94,1.768 1.704,23.139 1.704,66.804 L 1.704,516.927 C 1.704,557.771 22.599,579.156 63.896,579.156 L 515.92,579.156 C 557.227,579.156 578.149,558.841 578.149,516.927 L 578.149,66.804 C 578.149,24.203 557.227,1.768 514.628,1.768 C 514.624,1.768 66.133,1.625 66.275,1.768 z "
       style="fill:#111;stroke:#eee;stroke-width:3.40799999"
       id="path1329" />
  </g>
  <g
     id="g4372"
     transform="translate(-130.0802,122.26983)" />
  <g
     id="g840">
    <path
       d="m 44.696473,170.69578 h 68.689287 q 30.63607,0 46.97531,20.2969 16.44673,20.13707 16.44673,57.53452 0,37.55728 -16.44673,57.85416 -16.33924,20.13708 -46.97531,20.13708 H 86.082038 v 82.78579 H 44.696473 Z m 41.385565,44.58924 v 66.64419 h 22.896432 q 12.03944,0 18.59663,-8.63018 6.55719,-8.79001 6.55719,-24.77183 0,-15.98181 -6.55719,-24.61199 -6.55719,-8.63019 -18.59663,-8.63019 z"
       style="font-style:normal;font-variant:normal;font-weight:bold;font-stretch:normal;font-size:medium;line-height:125%;font-family:Sans;-inkscape-font-specification:'Sans Bold';letter-spacing:0px;word-spacing:0px;fill:#ffffff;fill-opacity:1;stroke:none;stroke-width:2.7961843px;stroke-linecap:butt;stroke-linejoin:miter;stroke-opacity:1"
       id="path827"
       inkscape:connector-curvature="0" />
    <path
       d="m 292.96468,220.2867 v 66.0685 h 65.81635 v 29.75605 h -65.81635 v 66.06851 H 262.95646 V 316.11125 H 197.14011 V 286.3552 h 65.81635 v -66.0685 z"
       style="font-style:normal;font-variant:normal;font-weight:bold;font-stretch:normal;font-size:medium;line-height:125%;font-family:Sans;-inkscape-font-specification:'Sans Bold';letter-spacing:0px;word-spacing:0px;fill:#ffffff;fill-opacity:1;stroke:none;stroke-width:2.68981218px;stroke-linecap:butt;stroke-linejoin:miter;stroke-opacity:1"
       id="path829"
       inkscape:connector-curvature="0" />
    <path
       d="m 449.20006,276.49539 q 13.00688,0 18.59662,-7.19184 5.69725,-7.1918 5.69725,-23.65307 0,-16.30146 -5.69725,-23.33346 -5.58974,-7.032 -18.59662,-7.032 h -17.41418 v 61.21036 z m -17.41418,42.51162 v 90.29722 H 390.4003 V 170.69578 h 63.20705 q 31.71102,0 46.43782,15.82199 14.83431,15.82201 14.83431,50.02309 0,23.65307 -7.73964,38.83578 -7.63213,15.18275 -23.11141,22.37454 8.4921,2.87673 15.15678,13.10509 6.7722,10.06855 13.65188,30.68507 l 22.46644,67.76289 h -44.07294 l -19.56409,-59.2925 q -5.91221,-17.89964 -12.03944,-24.4522 -6.01971,-6.55252 -16.12424,-6.55252 z"
       style="font-style:normal;font-variant:normal;font-weight:bold;font-stretch:normal;font-size:medium;line-height:125%;font-family:Sans;-inkscape-font-specification:'Sans Bold';letter-spacing:0px;word-spacing:0px;fill:#ffffff;fill-opacity:1;stroke:none;stroke-width:2.7961843px;stroke-linecap:butt;stroke-linejoin:miter;stroke-opacity:1"
       id="path831"
       inkscape:connector-curvature="0" />
  </g>
</svg>

<svg width="580" height="580" viewBox="0 0 580 580" fill="none" xmlns="http://www.w3.org/2000/svg">
<g clip-path="url(#clip0)">
<path d="M66.275 1.76799C24.94 1.76799 1.70401 23.139 1.70401 66.804V516.927C1.70401 557.771 22.599 579.156 63.896 579.156H515.92C557.227 579.156 578.149 558.841 578.149 516.927V66.804C578.149 24.203 557.227 1.76799 514.628 1.76799C514.624 1.76799 66.133 1.62499 66.275 1.76799Z" fill="#111111" stroke="#EEEEEE" stroke-width="3.408"/>
<path d="M44.6965 170.696H113.386C133.81 170.696 149.468 177.461 160.361 190.993C171.326 204.417 176.808 223.596 176.808 248.527C176.808 273.565 171.326 292.85 160.361 306.381C149.468 319.806 133.81 326.518 113.386 326.518H86.082V409.304H44.6965V170.696ZM86.082 215.285V281.929H108.978C117.005 281.929 123.204 279.052 127.575 273.299C131.947 267.439 134.132 259.182 134.132 248.527C134.132 237.873 131.947 229.669 127.575 223.915C123.204 218.162 117.005 215.285 108.978 215.285H86.082Z" fill="white"/>
<path d="M292.965 220.287V286.355H358.781V316.111H292.965V382.18H262.956V316.111H197.14V286.355H262.956V220.287H292.965Z" fill="white"/>
<path d="M449.2 276.495C457.871 276.495 464.07 274.098 467.797 269.304C471.595 264.509 473.494 256.625 473.494 245.65C473.494 234.783 471.595 227.005 467.797 222.317C464.07 217.629 457.871 215.285 449.2 215.285H431.786V276.495H449.2ZM431.786 319.007V409.304H390.4V170.696H453.607C474.748 170.696 490.227 175.97 500.045 186.518C509.935 197.066 514.879 213.74 514.879 236.541C514.879 252.31 512.3 265.255 507.14 275.377C502.052 285.498 494.348 292.957 484.028 297.751C489.69 299.669 494.742 304.037 499.185 310.856C503.7 317.569 508.251 327.797 512.837 341.541L535.304 409.304H491.231L471.667 350.012C467.725 338.079 463.712 329.928 459.627 325.56C455.614 321.191 450.239 319.007 443.503 319.007H431.786Z" fill="white"/>
</g>
<defs>
<clipPath id="clip0">
<rect width="580" height="580" fill="white"/>
</clipPath>
</defs>
</svg>
